svgs/sharp-light/tree-large.svg

<svg xmlns="http://www.w3.org/2000/svg" viewBox="0 0 448 512"><!--! Font Awesome Pro 6.6.0 by @fontawesome - https://fontawesome.com License - https://fontawesome.com/license (Commercial License) Copyright 2024 Fonticons, Inc. --><path d="M383.3 224l8.7 0 0-32L245.3 24.3 224 0 202.7 24.3 56 192l0 32 8.7 0L88 224l16 0L81.1 256 24 336l0 32 16.7 0L56 368l24 0L57.1 400 0 480l0 32 32 0 384 0 32 0 0-32-57.1-80L368 368l24 0 15.3 0 16.7 0 0-32-57.1-80L344 224l16 0 23.3 0zm-33.8-32l-5.5 0-62.2 0L318 242.6 384.7 336 368 336l-62.2 0L342 386.6 408.7 480 39.3 480 106 386.6 142.2 336 80 336l-16.7 0L130 242.6 166.2 192 104 192l-5.5 0L224 48.6 349.5 192z"/></svg>

<svg xmlns="http://www.w3.org/2000/svg" viewBox="0 0 448 512"><!--! Font Awesome Pro 6.4.2 by @fontawesome - https://fontawesome.com License - https://fontawesome.com/license (Commercial License) Copyright 2023 Fonticons, Inc. --><path d="M383.3 224H392V192L245.3 24.3 224 0 202.7 24.3 56 192v32h8.7H88h16L81.1 256 24 336v32H40.7 56 80L57.1 400 0 480v32H32 416h32V480l-57.1-80L368 368h24 15.3H424V336l-57.1-80L344 224h16 23.3zm-33.8-32H344 281.8L318 242.6 384.7 336H368 305.8L342 386.6 408.7 480H39.3L106 386.6 142.2 336H80 63.3L130 242.6 166.2 192H104 98.5L224 48.6 349.5 192z"/></svg>
